Papirus/32x32/apps/ente.svg

<svg width="32" height="32" version="1.1" xmlns="http://www.w3.org/2000/svg">
 <g>
  <rect x="2" y="3" width="28" height="28" ry="5.524171" style="opacity:.2"/>
  <rect x="2" y="2" width="28" height="28" ry="5.524171" style="fill:#444444"/>
  <path d="m12.743 16h6.572c0-2.4214-1.668618-3.499936-3.2862-3.5s-3.2858 1.0763-3.2858 3.5zm-3.74211 1.2004c-0.05839-3.6584 2.75851-7.2004 7.02791-7.2004 3.7472 0 5.9635 2.5813 6.6584 5.1747 0.2537 0.947 0.3128 1.8521 0.3128 2.8253h-10.257c0.0319 1.9633 1.7598 2.961 3.2858 3 1.876095 0 2.917-0.8621 3.2862-1.5017l2.685 1.7457c-0.675991 1.18925-2.6183 2.756-5.9712 2.756-3.1946 0-6.95818-2.4304-7.02791-6.7996z" style="opacity:.2"/>
  <path d="m12.743 15h6.572c0-2.4214-1.668618-3.499936-3.2862-3.5s-3.2858 1.0763-3.2858 3.5zm-3.74211 1.2004c-0.05839-3.6584 2.75851-7.2004 7.02791-7.2004 3.7472 0 5.9635 2.5813 6.6584 5.1747 0.2537 0.947 0.3128 1.8521 0.3128 2.8253h-10.257c0.0319 1.9633 1.7598 2.961 3.2858 3 1.876095 0 2.917-0.8621 3.2862-1.5017l2.685 1.7457c-0.675991 1.18925-2.6183 2.756-5.9712 2.756-3.1946 0-6.95818-2.4304-7.02791-6.7996z" style="fill:#e6e6e6"/>
  <path d="m16.029297 9c-4.2694 0-7.087687 3.542772-7.029297 7.201172 0.0021791 0.136537 0.0083146 0.269608 0.0175781 0.402344 0.2375904-3.43701 2.9753979-6.603516 7.0117189-6.603516 3.7472 0 5.963303 2.580428 6.658203 5.173828 0.165047 0.616079 0.247522 1.215273 0.285156 1.826172h0.027344c0-0.9732-0.0588-1.879172-0.3125-2.826172-0.6949-2.5934-2.911003-5.173828-6.658203-5.173828zm-3.173828 6c-0.069797 0.304811-0.113281 0.635002-0.113281 1h6.572265c0-0.364652-0.041516-0.695355-0.111328-1h-6.347656zm-0.113281 3c0.0319 1.9633 1.761109 2.961 3.287109 3 1.876095 0 2.915956-0.862353 3.285156-1.501953l2.1875 1.421875c0.208164-0.230025 0.37486-0.459063 0.498047-0.675781l-2.685547-1.746094c-0.3692 0.6396-1.409061 1.501953-3.285156 1.501953-1.240421-0.031701-2.613671-0.697694-3.101563-2h-0.185546z" style="fill:#ffffff;opacity:.2"/>
  <path d="M 7.52344 2 C 4.46305 2 2 4.46305 2 7.52344 L 2 8.52344 C 2 5.46305 4.46305 3 7.52344 3 L 24.4766 3 C 27.537 3 30 5.46305 30 8.52344 L 30 7.52344 C 30 4.46305 27.537 2 24.4766 2 L 7.52344 2 Z" style="fill:#ffffff;opacity:.1"/>
 </g>
</svg>

<svg xmlns="http://www.w3.org/2000/svg" width="32" height="32" version="1.1">
 <rect style="opacity:0.2" width="28" height="28" x="2" y="3" ry="5.525"/>
 <rect style="fill:#444444" width="28" height="28" x="2" y="2" ry="5.525"/>
 <path style="opacity:0.2" d="M 12.743,16 H 19.315 C 19.315,13.579 17.646,12.5 16.029,12.5 14.411,12.5 12.743,13.576 12.743,16 Z M 9.0009,17.2 C 8.9425,13.542 11.759,10 16.029,10 19.776,10 21.992,12.581 22.687,15.175 22.941,16.122 23,17.027 23,18 H 12.743 C 12.775,19.963 14.503,20.961 16.029,21 17.905,21 18.946,20.138 19.315,19.498 L 22,21.244 C 21.324,22.433 19.382,24 16.029,24 12.834,24 9.0706,21.57 9.0009,17.2 Z"/>
 <path style="fill:#e6e6e6" d="M 12.743,15 H 19.315 C 19.315,12.579 17.646,11.5 16.029,11.5 14.411,11.5 12.743,12.576 12.743,15 Z M 9.0009,16.2 C 8.9425,12.542 11.759,9 16.029,9 19.776,9 21.992,11.581 22.687,14.175 22.941,15.122 23,16.027 23,17 H 12.743 C 12.775,18.963 14.503,19.961 16.029,20 17.905,20 18.946,19.138 19.315,18.498 L 22,20.244 C 21.324,21.433 19.382,23 16.029,23 12.834,23 9.0706,20.57 9.0009,16.2 Z"/>
 <path style="opacity:0.2;fill:#ffffff" d="M 16.029,9 C 11.76,9 8.9416,12.543 9,16.201 9.0022,16.338 9.0083,16.471 9.0176,16.604 9.2552,13.167 11.993,10 16.029,10 19.776,10 21.993,12.58 22.687,15.174 22.853,15.79 22.935,16.389 22.973,17 H 23 C 23,16.027 22.941,15.121 22.687,14.174 21.993,11.58 19.776,9 16.029,9 Z M 12.855,15 C 12.786,15.305 12.742,15.635 12.742,16 H 19.314 C 19.314,15.635 19.273,15.305 19.203,15 Z M 12.742,18 C 12.774,19.963 14.503,20.961 16.029,21 17.905,21 18.945,20.138 19.314,19.498 L 21.502,20.92 C 21.71,20.69 21.877,20.461 22,20.244 L 19.314,18.498 C 18.945,19.138 17.905,20 16.029,20 14.789,19.968 13.416,19.302 12.928,18 Z"/>
 <path style="fill:#ffffff;opacity:0.1" d="M 7.5254 2 C 4.4645 2 2 4.4645 2 7.5254 L 2 8.5254 C 2 5.4645 4.4645 3 7.5254 3 L 24.475 3 C 27.535 3 30 5.4645 30 8.5254 L 30 7.5254 C 30 4.4645 27.535 2 24.475 2 L 7.5254 2 z"/>
</svg>
